!!!OTL: ZIEH SCHIMMEL ZIEH
!!!ARE: Europa, Mitteleuropa, Deutschland
!!!SCT: E1576
!!!YEM: Copyright 1995, estate of Helmut Schaffrath.
**kern
*ICvox
*Ivox
*M4/4
*k[f#]
*G:
=1
{2dd
4b
4cc
=2
2dd
4r}
{4dd
=3
4dd
4dd
4b
4cc
=4
2dd
2r}
=5
{4b
4cc
4dd
4cc
=6
4b
4a
4g
4g}
=7
{4b
4cc
4dd
4cc
=8
4b
4a
4g
4g}
=9
{2b
4a
4a
=10
2g
2r}
==
!!!AGN: Staende - Lied, Fuhrmann
!!!ONB: ESAC (Essen Associative Code) Database: ERK3
!!!AMT: simple quadruple
!!!AIN: vox
!!!EED: Helmut Schaffrath
!!!EEV: 1.0
*-
